apps/www/public/images/launchweek/gold-ticket.svg

<svg xmlns="http://www.w3.org/2000/svg" width="1200" height="420" fill="none" viewBox="0 0 1200 420"><g clip-path="url(#a)" filter="url(#b)"><mask id="e" width="1579.66" height="2196.56" x="-220.853" y="40.055" fill="#000" maskUnits="userSpaceOnUse"><path fill="#fff" d="M-220.853 40.055h1579.66v2196.56h-1579.66z"/><path d="M44.266 2004.75c-24.447-2.82-41.979-24.92-39.157-49.37L206.03 214.265c2.821-24.447 24.927-41.979 49.374-39.158l838.096 96.715c24.45 2.821 41.98 24.927 39.16 49.374L931.736 2062.31c-2.821 24.45-24.926 41.98-49.374 39.16z"/></mask><path fill="url(#c)" d="M44.266 2004.75c-24.447-2.82-41.979-24.92-39.157-49.37L206.03 214.265c2.821-24.447 24.927-41.979 49.374-39.158l838.096 96.715c24.45 2.821 41.98 24.927 39.16 49.374L931.736 2062.31c-2.821 24.45-24.926 41.98-49.374 39.16z"/><path fill="url(#d)" d="m931.736 2062.31 5.902.68zM1093.5 271.822l-.68 5.902zm39.16 49.374-5.9-.681zM206.03 214.265l5.902.681zm49.374-39.158.681-5.902zM5.109 1955.38l-5.903-.68zm5.902.68L211.932 214.946l-11.804-1.362L-.794 1954.7zM254.723 181.009l838.097 96.715 1.36-11.804-838.095-96.715zm872.037 139.506L925.834 2061.63l11.804 1.36L1138.56 321.877zM883.044 2095.57l-838.097-96.72-1.362 11.81 838.096 96.71zm42.79-33.94c-2.445 21.19-21.603 36.38-42.79 33.94l-1.363 11.8c27.707 3.2 52.76-16.67 55.957-44.38zM1092.82 277.724c21.19 2.445 36.38 21.603 33.94 42.791l11.8 1.362c3.2-27.707-16.67-52.76-44.38-55.957zm-880.888-62.778c2.445-21.188 21.603-36.382 42.791-33.937l1.362-11.804c-27.707-3.197-52.76 16.672-55.957 44.379zM-.794 1954.7c-3.197 27.71 16.672 52.76 44.379 55.96l1.362-11.81c-21.188-2.44-36.381-21.6-33.936-42.79z" mask="url(#e)"/><path fill="url(#f)" d="m328.214 408.7 8.675-75.181 12.959 1.495 24.206 55.206.624.072 5.969-51.724 13.105 1.513-8.675 75.181-12.775-1.474-24.338-55.035-.624-.072-5.948 51.54zm69.454-14.23.979-8.48 32.451 3.745-.978 8.48zm17.871-12.705q-5.543-.64-9.342-3.496-3.763-2.852-5.491-7.218t-1.127-9.578l.373-3.231q.598-5.176 3.274-9.033 2.682-3.894 6.995-5.814t9.82-1.285q5.58.644 9.306 3.492 3.762 2.852 5.449 7.25 1.729 4.366 1.131 9.542l-.372 3.23q-.598 5.176-3.238 9.038-2.604 3.866-6.921 5.822-4.277 1.925-9.857 1.281m1.051-9.104q3.487.402 5.68-1.837 2.233-2.271 2.712-6.42l.373-3.23q.474-4.112-1.155-6.755t-5.227-3.058q-3.56-.411-5.749 1.792-2.152 2.207-2.626 6.318l-.373 3.23q-.479 4.149 1.142 6.865 1.625 2.68 5.223 3.095m78.269 56.944q-9.467-1.131-15.761-6.543-6.258-5.41-8.916-14.607-2.622-9.192-1.162-21.523 1.42-12.297 6.053-20.542 4.67-8.24 11.983-11.971 7.353-3.764 16.788-2.675 9.434 1.088 15.7 6.424 6.303 5.34 8.974 14.427 2.676 9.05 1.22 21.344-1.428 12.37-6.111 20.721-4.647 8.354-11.972 12.196-7.325 3.841-16.796 2.749m1.521-13.179q6.46.746 11.065-5.307t6.067-19.053q.986-8.553-.118-14.446-1.07-5.89-3.933-9.121-2.826-3.228-7.121-3.724-6.424-.741-11.02 5.239t-6.111 18.786q-1 8.664.056 14.663 1.097 5.967 3.956 9.235 2.863 3.232 7.159 3.728m69.649 21.392q-9.467-1.131-15.761-6.543-6.256-5.41-8.916-14.607-2.622-9.192-1.161-21.523 1.418-12.298 6.053-20.542 4.67-8.24 11.983-11.971 7.353-3.764 16.787-2.675t15.701 6.424q6.302 5.34 8.974 14.427 2.675 9.05 1.219 21.344-1.428 12.37-6.111 20.721-4.646 8.354-11.972 12.196-7.325 3.841-16.796 2.749m1.521-13.179q6.461.746 11.065-5.307 4.605-6.053 6.068-19.053.987-8.553-.119-14.446-1.068-5.89-3.932-9.121-2.826-3.228-7.121-3.724-6.425-.741-11.021 5.238-4.594 5.98-6.111 18.787-.999 8.664.057 14.663 1.097 5.967 3.956 9.235 2.863 3.232 7.158 3.728m69.65 21.391q-9.467-1.13-15.761-6.543-6.258-5.409-8.916-14.606-2.622-9.192-1.162-21.523 1.42-12.297 6.053-20.542 4.67-8.24 11.983-11.971 7.354-3.764 16.788-2.675t15.7 6.424q6.303 5.34 8.974 14.427 2.676 9.05 1.22 21.344-1.428 12.37-6.111 20.721-4.647 8.354-11.972 12.196-7.325 3.841-16.796 2.748m1.521-13.178q6.46.746 11.065-5.307t6.067-19.053q.987-8.553-.118-14.446-1.069-5.89-3.932-9.121-2.827-3.228-7.122-3.724-6.424-.741-11.02 5.238-4.596 5.98-6.111 18.787-1 8.664.056 14.663 1.097 5.967 3.956 9.235 2.863 3.232 7.159 3.728m69.65 21.391q-9.468-1.13-15.761-6.543-6.258-5.409-8.916-14.606-2.622-9.193-1.162-21.523 1.42-12.298 6.053-20.542 4.67-8.24 11.983-11.971 7.353-3.764 16.788-2.676 9.434 1.09 15.7 6.425 6.303 5.34 8.974 14.427 2.676 9.05 1.219 21.344-1.427 12.37-6.111 20.721-4.646 8.354-11.971 12.196-7.325 3.841-16.796 2.748m1.52-13.178q6.462.745 11.066-5.307t6.067-19.053q.987-8.553-.119-14.446-1.068-5.89-3.932-9.121-2.826-3.228-7.121-3.724-6.424-.741-11.02 5.238-4.596 5.98-6.111 18.787-1 8.663.056 14.663 1.097 5.967 3.956 9.235 2.863 3.232 7.158 3.728m69.65 21.391q-9.467-1.13-15.761-6.543-6.256-5.409-8.916-14.606-2.622-9.193-1.161-21.523 1.418-12.298 6.053-20.542 4.67-8.24 11.983-11.971 7.353-3.764 16.787-2.676 9.435 1.09 15.701 6.425 6.302 5.34 8.974 14.427 2.675 9.05 1.219 21.344-1.428 12.37-6.111 20.721-4.647 8.354-11.972 12.196-7.325 3.841-16.796 2.748m1.521-13.178q6.461.746 11.065-5.308 4.605-6.052 6.067-19.052.988-8.553-.118-14.446-1.068-5.89-3.932-9.121-2.826-3.228-7.122-3.724-6.423-.741-11.02 5.238-4.595 5.98-6.111 18.787-.999 8.664.057 14.663 1.097 5.967 3.956 9.235 2.863 3.232 7.158 3.728m69.65 21.391q-9.467-1.13-15.761-6.543-6.258-5.409-8.916-14.606-2.622-9.193-1.162-21.523 1.42-12.298 6.053-20.542 4.67-8.24 11.983-11.971 7.353-3.764 16.788-2.676 9.434 1.09 15.7 6.425 6.303 5.34 8.974 14.427 2.676 9.05 1.22 21.344-1.428 12.37-6.111 20.721-4.647 8.353-11.972 12.196-7.325 3.841-16.796 2.748m1.521-13.178q6.46.746 11.065-5.308 4.604-6.052 6.067-19.052.987-8.553-.118-14.446-1.069-5.89-3.932-9.121-2.828-3.228-7.122-3.724-6.424-.741-11.02 5.238-4.596 5.98-6.111 18.787-1 8.664.056 14.663 1.097 5.967 3.956 9.235 2.863 3.232 7.159 3.728m69.65 21.391q-9.468-1.13-15.761-6.543-6.258-5.408-8.916-14.606-2.623-9.193-1.162-21.523 1.42-12.298 6.053-20.542 4.67-8.24 11.983-11.971 7.353-3.764 16.788-2.676 9.434 1.09 15.7 6.425 6.303 5.34 8.974 14.427 2.675 9.05 1.219 21.344-1.427 12.37-6.111 20.721-4.646 8.353-11.971 12.196-7.326 3.841-16.796 2.748m1.52-13.178q6.461.746 11.066-5.308 4.603-6.053 6.067-19.052.987-8.553-.119-14.446-1.068-5.89-3.932-9.121-2.826-3.228-7.121-3.724-6.424-.741-11.02 5.238-4.596 5.98-6.111 18.787-1 8.664.056 14.663 1.097 5.967 3.956 9.235 2.864 3.232 7.158 3.728m81.747-55.069-8.676 75.181-15.895-1.834 6.935-60.094-.441-.05-18.462 8.805 1.627-14.096 19.971-9.636z"/></g><defs><linearGradient id="c" x1="31.199" x2="1193.07" y1="16.282" y2="150.36" gradientUnits="userSpaceOnUse"><stop/><stop offset="1" stop-color="#decd43"/><stop offset="1" stop-color="#b19811"/></linearGradient><linearGradient id="d" x1="990.188" x2="834.844" y1="-180.606" y2="675.899" gradientUnits="userSpaceOnUse"><stop/><stop offset="1" stop-color="#c4ae38"/></linearGradient><linearGradient id="f" x1="487.939" x2="811.91" y1="336.476" y2="612.991" gradientUnits="userSpaceOnUse"><stop/><stop offset="1" stop-color="#ba9619" stop-opacity=".28"/></linearGradient><clipPath id="a"><path fill="#fff" d="M0 0h1200v420H0z"/></clipPath><filter id="b" width="1500.03" height="2298.84" x="-173.848" y="14.364" color-interpolation-filters="sRGB" filterUnits="userSpaceOnUse"><feFlood flood-opacity="0" result="BackgroundImageFix"/><feColorMatrix in="SourceAlpha" result="hardAlpha" values="0 0 0 0 0 0 0 0 0 0 0 0 0 0 0 0 0 0 127 0"/><feOffset dx="7.285" dy="25.496"/><feGaussianBlur stdDeviation="90"/><feComposite in2="hardAlpha" operator="out"/><feColorMatrix values="0 0 0 0 1 0 0 0 0 0.742167 0 0 0 0 0.0791667 0 0 0 1 0"/><feBlend in2="BackgroundImageFix" result="effect1_dropShadow_803_16272"/><feBlend in="SourceGraphic" in2="effect1_dropShadow_803_16272" result="shape"/></filter></defs></svg>

<svg width="1200" height="420" viewBox="0 0 1200 420" fill="none" xmlns="http://www.w3.org/2000/svg">
<g clip-path="url(#clip0_803_16272)">
<g filter="url(#filter0_d_803_16272)">
<mask id="path-1-outside-1_803_16272" maskUnits="userSpaceOnUse" x="-220.853" y="40.0547" width="1579.66" height="2196.56" fill="black">
<rect fill="white" x="-220.853" y="40.0547" width="1579.66" height="2196.56"/>
<path d="M44.266 2004.75C19.8188 2001.93 2.28734 1979.83 5.1085 1955.38L206.03 214.265C208.851 189.818 230.957 172.286 255.404 175.107L1093.5 271.822C1117.95 274.643 1135.48 296.749 1132.66 321.196L931.736 2062.31C928.915 2086.76 906.81 2104.29 882.362 2101.47L44.266 2004.75Z"/>
</mask>
<path d="M44.266 2004.75C19.8188 2001.93 2.28734 1979.83 5.1085 1955.38L206.03 214.265C208.851 189.818 230.957 172.286 255.404 175.107L1093.5 271.822C1117.95 274.643 1135.48 296.749 1132.66 321.196L931.736 2062.31C928.915 2086.76 906.81 2104.29 882.362 2101.47L44.266 2004.75Z" fill="url(#paint0_linear_803_16272)"/>
<path d="M931.736 2062.31L937.638 2062.99L931.736 2062.31ZM1093.5 271.822L1092.82 277.724L1093.5 271.822ZM1132.66 321.196L1126.76 320.515L1132.66 321.196ZM206.03 214.265L211.932 214.946L206.03 214.265ZM255.404 175.107L256.085 169.205L255.404 175.107ZM5.10851 1955.38L-0.793575 1954.7L5.10851 1955.38ZM11.0106 1956.06L211.932 214.946L200.128 213.584L-0.793575 1954.7L11.0106 1956.06ZM254.723 181.009L1092.82 277.724L1094.18 265.92L256.085 169.205L254.723 181.009ZM1126.76 320.515L925.834 2061.63L937.638 2062.99L1138.56 321.877L1126.76 320.515ZM883.044 2095.57L44.9471 1998.85L43.5849 2010.66L881.681 2107.37L883.044 2095.57ZM925.834 2061.63C923.389 2082.82 904.231 2098.01 883.044 2095.57L881.681 2107.37C909.388 2110.57 934.441 2090.7 937.638 2062.99L925.834 2061.63ZM1092.82 277.724C1114.01 280.169 1129.2 299.327 1126.76 320.515L1138.56 321.877C1141.76 294.17 1121.89 269.117 1094.18 265.92L1092.82 277.724ZM211.932 214.946C214.377 193.758 233.535 178.564 254.723 181.009L256.085 169.205C228.378 166.008 203.325 185.877 200.128 213.584L211.932 214.946ZM-0.793575 1954.7C-3.9909 1982.41 15.8781 2007.46 43.5849 2010.66L44.9471 1998.85C23.7595 1996.41 8.56559 1977.25 11.0106 1956.06L-0.793575 1954.7Z" fill="url(#paint1_linear_803_16272)" mask="url(#path-1-outside-1_803_16272)"/>
<path d="M328.214 408.7L336.889 333.519L349.848 335.014L374.054 390.22L374.678 390.292L380.647 338.568L393.752 340.081L385.077 415.262L372.302 413.788L347.964 358.753L347.34 358.681L341.392 410.221L328.214 408.7ZM397.668 394.47L398.647 385.99L431.098 389.735L430.12 398.215L397.668 394.47ZM415.539 381.765C411.844 381.338 408.729 380.173 406.197 378.269C403.688 376.367 401.858 373.962 400.706 371.051C399.554 368.141 399.178 364.948 399.579 361.473L399.952 358.242C400.35 354.792 401.442 351.78 403.226 349.209C405.014 346.613 407.345 344.675 410.221 343.395C413.097 342.115 416.37 341.686 420.041 342.11C423.761 342.539 426.863 343.703 429.347 345.602C431.855 347.503 433.672 349.92 434.796 352.852C435.949 355.763 436.325 358.943 435.927 362.394L435.555 365.624C435.156 369.075 434.077 372.087 432.317 374.662C430.581 377.239 428.274 379.18 425.396 380.484C422.544 381.767 419.259 382.194 415.539 381.765ZM416.59 372.661C418.915 372.929 420.808 372.317 422.27 370.824C423.759 369.31 424.663 367.17 424.982 364.404L425.355 361.174C425.671 358.433 425.286 356.181 424.2 354.419C423.114 352.657 421.372 351.638 418.973 351.361C416.599 351.087 414.683 351.684 413.224 353.153C411.789 354.624 410.914 356.73 410.598 359.471L410.225 362.701C409.906 365.467 410.286 367.755 411.367 369.566C412.45 371.352 414.191 372.384 416.59 372.661ZM494.859 429.605C488.547 428.851 483.294 426.67 479.098 423.062C474.926 419.455 471.954 414.587 470.182 408.455C468.434 402.327 468.047 395.152 469.02 386.932C469.966 378.734 471.984 371.886 475.073 366.39C478.187 360.897 482.181 356.907 487.056 354.419C491.958 351.91 497.554 351.018 503.844 351.744C510.133 352.469 515.367 354.611 519.544 358.168C523.746 361.728 526.737 366.537 528.518 372.595C530.302 378.629 530.708 385.743 529.738 393.939C528.786 402.186 526.749 409.093 523.627 414.66C520.529 420.229 516.538 424.295 511.655 426.856C506.771 429.417 501.173 430.333 494.859 429.605ZM496.38 416.426C500.687 416.923 504.375 415.154 507.445 411.119C510.514 407.083 512.537 400.733 513.512 392.066C514.17 386.364 514.13 381.549 513.394 377.62C512.681 373.694 511.37 370.653 509.461 368.499C507.577 366.347 505.203 365.106 502.34 364.775C498.057 364.281 494.384 366.027 491.32 370.014C488.256 374 486.219 380.262 485.209 388.8C484.542 394.576 484.561 399.463 485.265 403.463C485.996 407.441 487.315 410.519 489.221 412.698C491.13 414.853 493.516 416.095 496.38 416.426ZM566.029 437.818C559.718 437.064 554.464 434.883 550.268 431.275C546.097 427.668 543.125 422.8 541.352 416.668C539.604 410.54 539.217 403.365 540.191 395.145C541.137 386.947 543.154 380.099 546.244 374.603C549.358 369.11 553.352 365.12 558.227 362.632C563.129 360.123 568.725 359.231 575.014 359.957C581.304 360.682 586.537 362.824 590.715 366.381C594.916 369.941 597.908 374.75 599.689 380.808C601.472 386.842 601.879 393.956 600.908 402.152C599.956 410.399 597.919 417.306 594.797 422.873C591.699 428.442 587.709 432.508 582.825 435.069C577.942 437.63 572.343 438.546 566.029 437.818ZM567.55 424.639C571.857 425.136 575.546 423.367 578.615 419.332C581.685 415.296 583.707 408.946 584.683 400.279C585.341 394.577 585.301 389.762 584.564 385.833C583.852 381.907 582.541 378.866 580.632 376.712C578.748 374.56 576.374 373.319 573.511 372.988C569.228 372.494 565.554 374.24 562.49 378.226C559.427 382.213 557.39 388.475 556.379 397.013C555.713 402.789 555.732 407.676 556.436 411.676C557.167 415.654 558.486 418.732 560.392 420.911C562.301 423.066 564.687 424.308 567.55 424.639ZM637.2 446.03C630.889 445.277 625.635 443.096 621.439 439.487C617.267 435.881 614.295 431.013 612.523 424.881C610.775 418.753 610.388 411.578 611.361 403.358C612.307 395.16 614.325 388.312 617.414 382.816C620.528 377.323 624.522 373.333 629.397 370.845C634.3 368.335 639.895 367.444 646.185 368.17C652.475 368.895 657.708 371.037 661.885 374.594C666.087 378.154 669.078 382.963 670.859 389.021C672.643 395.054 673.049 402.169 672.079 410.365C671.127 418.612 669.09 425.519 665.968 431.086C662.87 436.655 658.879 440.721 653.996 443.282C649.113 445.843 643.514 446.759 637.2 446.03ZM638.721 432.852C643.028 433.349 646.716 431.58 649.786 427.545C652.856 423.509 654.878 417.159 655.853 408.492C656.511 402.79 656.472 397.975 655.735 394.046C655.022 390.12 653.712 387.079 651.803 384.925C649.918 382.773 647.544 381.532 644.681 381.201C640.398 380.707 636.725 382.453 633.661 386.439C630.597 390.426 628.56 396.688 627.55 405.226C626.884 411.002 626.902 415.889 627.606 419.889C628.338 423.867 629.656 426.945 631.562 429.124C633.471 431.279 635.857 432.521 638.721 432.852ZM708.371 454.243C702.059 453.49 696.806 451.309 692.61 447.7C688.438 444.094 685.466 439.226 683.694 433.094C681.946 426.965 681.558 419.791 682.532 411.571C683.478 403.373 685.496 396.525 688.585 391.029C691.699 385.536 695.693 381.546 700.568 379.058C705.47 376.548 711.066 375.657 717.356 376.382C723.645 377.108 728.879 379.25 733.056 382.807C737.258 386.367 740.249 391.176 742.03 397.234C743.814 403.267 744.22 410.382 743.249 418.578C742.298 426.825 740.261 433.732 737.138 439.299C734.041 444.868 730.05 448.934 725.167 451.495C720.283 454.056 714.685 454.972 708.371 454.243ZM709.891 441.065C714.199 441.562 717.887 439.793 720.957 435.758C724.026 431.722 726.049 425.372 727.024 416.705C727.682 411.003 727.642 406.188 726.905 402.259C726.193 398.333 724.882 395.292 722.973 393.138C721.089 390.986 718.715 389.745 715.852 389.414C711.569 388.92 707.896 390.666 704.832 394.652C701.768 398.639 699.731 404.901 698.721 413.439C698.054 419.215 698.073 424.102 698.777 428.102C699.508 432.08 700.827 435.158 702.733 437.337C704.642 439.492 707.028 440.734 709.891 441.065ZM779.541 462.456C773.23 461.703 767.976 459.522 763.78 455.913C759.609 452.307 756.637 447.439 754.864 441.307C753.116 435.178 752.729 428.004 753.703 419.784C754.649 411.586 756.666 404.738 759.756 399.242C762.869 393.749 766.864 389.759 771.739 387.271C776.641 384.761 782.237 383.87 788.526 384.595C794.816 385.321 800.049 387.463 804.227 391.02C808.428 394.58 811.42 399.389 813.201 405.447C814.984 411.48 815.391 418.595 814.42 426.791C813.468 435.038 811.431 441.945 808.309 447.512C805.211 453.081 801.221 457.147 796.337 459.708C791.454 462.269 785.855 463.185 779.541 462.456ZM781.062 449.278C785.369 449.775 789.058 448.006 792.127 443.97C795.197 439.935 797.219 433.585 798.194 424.918C798.853 419.216 798.813 414.4 798.076 410.472C797.364 406.546 796.053 403.505 794.144 401.351C792.26 399.199 789.886 397.958 787.022 397.627C782.74 397.133 779.066 398.879 776.002 402.865C772.939 406.852 770.902 413.114 769.891 421.652C769.225 427.428 769.244 432.315 769.948 436.315C770.679 440.293 771.998 443.371 773.904 445.55C775.813 447.705 778.199 448.947 781.062 449.278ZM850.712 470.669C844.401 469.916 839.147 467.735 834.951 464.126C830.779 460.52 827.807 455.652 826.035 449.52C824.287 443.391 823.9 436.217 824.873 427.997C825.819 419.798 827.837 412.951 830.926 407.455C834.04 401.962 838.034 397.971 842.909 395.484C847.811 392.974 853.407 392.083 859.697 392.808C865.986 393.534 871.22 395.676 875.397 399.233C879.599 402.793 882.59 407.602 884.371 413.66C886.155 419.693 886.561 426.808 885.591 435.004C884.639 443.251 882.602 450.158 879.48 455.725C876.382 461.294 872.391 465.359 867.508 467.921C862.625 470.482 857.026 471.398 850.712 470.669ZM852.233 457.491C856.54 457.988 860.228 456.219 863.298 452.183C866.367 448.148 868.39 441.798 869.365 433.131C870.023 427.429 869.984 422.613 869.247 418.685C868.534 414.759 867.224 411.718 865.315 409.564C863.43 407.412 861.056 406.171 858.193 405.84C853.91 405.346 850.237 407.092 847.173 411.078C844.109 415.065 842.072 421.327 841.062 429.865C840.396 435.641 840.414 440.528 841.118 444.528C841.85 448.506 843.168 451.584 845.074 453.763C846.983 455.918 849.369 457.16 852.233 457.491ZM921.883 478.882C915.571 478.129 910.318 475.948 906.122 472.339C901.95 468.733 898.978 463.865 897.206 457.733C895.458 451.604 895.07 444.43 896.044 436.21C896.99 428.011 899.008 421.164 902.097 415.668C905.211 410.175 909.205 406.184 914.08 403.697C918.982 401.187 924.578 400.296 930.868 401.021C937.157 401.747 942.391 403.889 946.568 407.446C950.77 411.006 953.761 415.815 955.542 421.873C957.325 427.906 957.732 435.021 956.761 443.217C955.81 451.464 953.773 458.371 950.65 463.938C947.553 469.507 943.562 473.572 938.679 476.134C933.795 478.695 928.197 479.611 921.883 478.882ZM923.403 465.704C927.711 466.201 931.399 464.432 934.469 460.396C937.538 456.361 939.56 450.01 940.536 441.344C941.194 435.642 941.154 430.826 940.417 426.898C939.705 422.971 938.394 419.931 936.485 417.777C934.601 415.625 932.227 414.384 929.364 414.053C925.081 413.559 921.408 415.305 918.344 419.291C915.28 423.278 913.243 429.54 912.233 438.078C911.566 443.854 911.585 448.741 912.289 452.741C913.02 456.719 914.339 459.797 916.245 461.976C918.154 464.131 920.54 465.373 923.403 465.704ZM1005.15 410.635L996.474 485.816L980.579 483.982L987.514 423.888L987.073 423.838L968.611 432.643L970.238 418.547L990.209 408.911L1005.15 410.635Z" fill="url(#paint2_linear_803_16272)"/>
</g>
</g>
<defs>
<filter id="filter0_d_803_16272" x="-173.848" y="14.364" width="1500.03" height="2298.84" filterUnits="userSpaceOnUse" color-interpolation-filters="sRGB">
<feFlood flood-opacity="0" result="BackgroundImageFix"/>
<feColorMatrix in="SourceAlpha" type="matrix" values="0 0 0 0 0 0 0 0 0 0 0 0 0 0 0 0 0 0 127 0" result="hardAlpha"/>
<feOffset dx="7.28466" dy="25.4963"/>
<feGaussianBlur stdDeviation="90"/>
<feComposite in2="hardAlpha" operator="out"/>
<feColorMatrix type="matrix" values="0 0 0 0 1 0 0 0 0 0.742167 0 0 0 0 0.0791667 0 0 0 1 0"/>
<feBlend mode="normal" in2="BackgroundImageFix" result="effect1_dropShadow_803_16272"/>
<feBlend mode="normal" in="SourceGraphic" in2="effect1_dropShadow_803_16272" result="shape"/>
</filter>
<linearGradient id="paint0_linear_803_16272" x1="31.1991" y1="16.2818" x2="1193.07" y2="150.36" gradientUnits="userSpaceOnUse">
<stop stopColor="#FFF249"/>
<stop offset="1" stop-color="#DECD43"/>
<stop offset="1" stop-color="#B19811"/>
</linearGradient>
<linearGradient id="paint1_linear_803_16272" x1="990.188" y1="-180.606" x2="834.844" y2="675.899" gradientUnits="userSpaceOnUse">
<stop stopColor="#FEFFE3"/>
<stop offset="1" stop-color="#C4AE38"/>
</linearGradient>
<linearGradient id="paint2_linear_803_16272" x1="487.939" y1="336.476" x2="811.91" y2="612.991" gradientUnits="userSpaceOnUse">
<stop stopColor="#CDB644"/>
<stop offset="1" stop-color="#BA9619" stop-opacity="0.28"/>
</linearGradient>
<clipPath id="clip0_803_16272">
<rect width="1200" height="420" fill="white"/>
</clipPath>
</defs>
</svg>
